X:394
T:Fa la nana
Z:Jack Campin, http://www.campin.me.uk/
F:Jack Campin's Nine-Note Tunebook
% last edit 03-02-2013
G:lullaby from Monghidoro
N:pickup zCDF| is zA,DF| in the original
M:C
L:1/8
Q:1/4=108
K:DMin
    DE|F2GA B2A2|E2D2   F2A2|GFG2 E2F2|[1 D2 D4:|\
                                       [2 D8   ||
|:     E4   F2G2|F/E/D3 F2A2|GFG2 E2F2|[1 D8   :|\
                                       [2 D6   ||
|:  DE|F2GA B2A2|E2D2   F2A2|GFG2 E2F2|[1 D6   :|\
                                       [2 D8   ||
|:     E4   F2G2|F/E/D3 F2A2|GFG2 E2F2|[1 D8   :|\
                                       [2 D4   ||
|:zCDF|AABc BAAG|E2D2   F2A2|GFG2 E2F2|[1 D2D2 :|\
                                       [2 D8   ||
|:     E4   F2G2|F/E/D3 F2A2|GFG2 E2F2|[1 D8   :|\
                                       [2 D6   ||
|:  DE|F2G2 BAG2|E2D2   F2A2|GFG2 E2F2|[1 D2 D4:|\
                                       [2 D2 D6||
|:     E4   F2G2|F/E/D3 F2A2|GFG2 E2F2|[1 D8   :|\
                                       [2 D4   ||
|:D2A2|A2Bc B2A2|E2DD   F2A2|GFGG E2F2|[1 D4   :|\
                                       [2 D8   ||
|:     E4   F2G2|F/E/D3 F2A2|GFG2 E2F2|   D8   :|
       E4   F2G2|F/E/D3 F2A2|GFG2 E2C2|   D8-   |D8|]

